X:1
T:46. She moved through the fair
C:trad
Z:Klas Krantz 2006
R:Air
Q:&quot;adagio&quot;
L:1/8
M:3/4
K:D
(3ABc | &quot;G&quot;d2&quot;Fm&quot;c2&quot;G&quot;d2 | &quot;A&quot;e2e4- | e4dB | &quot;G&quot;G2>A2A2 | &quot;A&quot;A6- | A4 ef |
&quot;A&quot;g2a2>e2 | &quot;Fm&quot;f2e2>c2 | &quot;G&quot;d2c2d2 | &quot;A&quot;e6- | e4 ef |
&quot;A&quot;g2a2>e2 | &quot;Fm&quot;f2e2>c2 | &quot;G&quot;d2c2d2 | &quot;A&quot;e2e4- | e4 (3ABc |
&quot;G&quot;d2&quot;Fm&quot;c2&quot;G&quot;d2 | &quot;A&quot;e2e4- | e4 dB | &quot;G&quot;G2A2A2 | &quot;A&quot;A6- | A4 |]
